src/16/panel/smartphoneconnected.svg

<svg xmlns="http://www.w3.org/2000/svg" width="16" height="16" version="1.1">
 <defs>
  <style id="current-color-scheme" type="text/css">
   .ColorScheme-Text { color:#dfdfdf; } .ColorScheme-Highlight { color:#5294e2; }
  </style>
 </defs>
 <path style="fill:currentColor" class="ColorScheme-Text" d="M 4,1 C 3,1 3,2 3,2 V 14 C 3,14 3,15 4,15 H 12 C 13,15 13,14 13,14 V 2 C 13,2 13,1 12,1 Z M 11,4 V 11 H 5 V 4.002 L 11,4.0001 Z M 8,12 C 8.5523,12 9,12.448 9,13 9,13.552 8.5523,14 8,14 7.4477,14 7,13.552 7,13 7,12.448 7.4477,12 8,12 Z"/>
</svg>

<svg xmlns="http://www.w3.org/2000/svg" width="16" height="16"><defs><style id="current-color-scheme" type="text/css"></style></defs><path d="M4 1C3 1 3 2 3 2v12s0 1 1 1h8c1 0 1-1 1-1V2s0-1-1-1zm7 3v7H5V4.002L11 4zm-3 8a1 1 0 1 1 0 2 1 1 0 0 1 0-2z" fill="currentColor" color="#dfdfdf"/></svg>
